kora-light/actions/scalable/fcitx-chttrans-active.svg

<svg xmlns="http://www.w3.org/2000/svg" width="16" height="16" version="1.1">
 <defs>
  <style id="current-color-scheme" type="text/css">
   .ColorScheme-Text { color:#444444; } .ColorScheme-Highlight { color:#4285f4; }
  </style>
 </defs>
 <path style="fill:currentColor" class="ColorScheme-Text" d="M 2,0 C 0.892,0 0,0.892 0,2 V 14 C 0,15.108 0.892,16 2,16 H 14 C 15.108,16 16,15.108 16,14 V 2 C 16,0.892 15.108,0 14,0 Z M 7,0.5 H 8 V 1 H 11 V 0.5 H 12 V 1 H 14 V 2 H 12 V 4 H 10 V 5 H 13 V 8 H 10 V 9 H 13 V 10 H 10 V 11 H 14 V 12 H 10.338 C 10.595,12.394 10.977,12.782 11.451,13.115 12.327,13.731 13.449,14.113 13.99,14.102 L 14.01,15.102 C 13.066,15.121 11.899,14.651 10.877,13.934 10.346,13.56 9.8503,13.108 9.5,12.588 9.1497,13.108 8.6542,13.56 8.123,13.934 7.1012,14.651 5.9343,15.121 4.9902,15.102 L 5.0098,14.102 C 5.5508,14.113 6.6727,13.731 7.5488,13.115 8.023,12.782 8.4047,12.394 8.6621,12 H 5 V 11 H 9 V 10 H 6 V 9 H 9 V 8 H 6 V 5 H 9 V 4 H 7 V 2 H 5 V 1 H 7 Z M 2.3516,2.3769 C 3.1974,2.8382 3.9662,3.3971 4.6582,4.0507 L 3.9082,5.0311 C 3.1393,4.3006 2.3504,3.6853 1.543,3.1854 Z M 8,2 V 3 H 11 V 2 Z M 1.7754,5.6531 C 2.5443,6.076 3.2546,6.5562 3.9082,7.0945 L 3.1016,8.0749 C 2.448,7.4213 1.7357,6.8826 0.9668,6.4597 Z M 7,6 V 7 H 9 V 6 Z M 10,6 V 7 H 12 V 6 Z M 3.1016,8.9863 4.082,9.6797 C 3.6207,11.487 2.9468,13.236 2.0625,14.928 L 0.91016,14.119 C 1.8329,12.504 2.5633,10.793 3.1016,8.9863 Z"/>
</svg>

<svg xmlns="http://www.w3.org/2000/svg" style="fill-rule:evenodd;clip-rule:evenodd;stroke-linejoin:round;stroke-miterlimit:2" width="100%" height="100%" version="1.1" viewBox="0 0 16 16" xml:space="preserve">
 <defs>
  <style id="current-color-scheme" type="text/css">
   .ColorScheme-Text { color:#444444; } .ColorScheme-Highlight { color:#4285f4; } .ColorScheme-NeutralText { color:#ff9800; } .ColorScheme-PositiveText { color:#4caf50; } .ColorScheme-NegativeText { color:#f44336; }
  </style>
 </defs>
 <path style="fill:currentColor;" class="ColorScheme-Text" d="M7,0.5l1,0l0,0.5l3,0l0,-0.5l1,0l0,0.5l2,0l0,1l-2,0l0,2l-2,0l0,1l3,0l0,3l-3,0l0,1l3,0l0,1l-3,0l0,1l4,0l0,1l-3.662,0c0.257,0.394 0.639,0.782 1.113,1.115c0.876,0.616 1.998,0.998 2.539,0.987l0.02,1c-0.944,0.019 -2.111,-0.451 -3.133,-1.168c-0.531,-0.374 -1.027,-0.826 -1.377,-1.346c-0.35,0.52 -0.846,0.972 -1.377,1.346c-1.022,0.717 -2.189,1.187 -3.133,1.168l0.02,-1c0.541,0.011 1.663,-0.371 2.539,-0.987c0.474,-0.333 0.856,-0.721 1.113,-1.115l-3.662,0l0,-1l4,0l0,-1l-3,0l0,-1l3,0l0,-1l-3,0l0,-3l3,0l0,-1l-2,0l0,-2l-2,0l0,-1l2,0l0,-0.5Zm-3.898,8.486l0.98,0.694c-0.461,1.807 -1.135,3.556 -2.019,5.248l-1.153,-0.809c0.923,-1.615 1.653,-3.326 2.192,-5.133Zm-1.327,-3.333c0.769,0.423 1.48,0.903 2.133,1.441l-0.806,0.981c-0.654,-0.654 -1.366,-1.192 -2.135,-1.615l0.808,-0.807Zm5.225,0.347l0,1l2,-0l0,-1l-2,-0Zm3,-0l0,1l2,-0l0,-1l-2,-0Zm-7.648,-3.623c0.845,0.461 1.614,1.02 2.306,1.674l-0.75,0.98c-0.769,-0.73 -1.558,-1.346 -2.365,-1.846l0.809,-0.808Zm5.648,-0.377l0,1l3,-0l0,-1l-3,-0Z"/>
</svg>
